X:1
T:Standin In The Need of Prayer
T:A happy new year
T:Copyright 1881 by The Riverside Press
T:Rodeheaver's Plantation Melodies
T:Rodeheaver's Plantation Melodies
Z:Rodeheaver's Plantation Melodies
%%score [ 1 2 3 4 ]
L:1/8
M:3/4
K:F
V:1 treble nm="Soprano" snm="S."
V:2 treble nm="Alto" snm="A."
V:3 bass nm="Tenor" snm="T."
V:4 bass nm="Bass" snm="B."
V:1
 CC | F2 A2 A2 | G4 CC | G2 B2 B2 | A4 FF | A2 c<A AA | B2 d<B BB | A2 B2 G2 | F4!fine! :| C2 | %10
 F2 A2 A2 | G4 C2 | G2 B2 B2 | A4 F2 | A2 c<A A2 | B2 d<B B2 | A2 B2 G2 | F4!D.C.! |] %18
V:2
 CC | C2 F2 F2 | E4 CC | E2 G2 G2 | F4 FF | F2 A<F FF | G2 B<G GG | F2 G2 E2 | F4 :| C2 | %10
w: What a|hap- py new|year. What a|hap- py new|year. What a|hap- py- * what a|hap- py- , what a|hap- py new|year.|I'm|
 C2 F2 F2 | E4 C2 | E2 G2 G2 | F4 F2 | F2 A<F F2 | G2 B<G G2 | F2 G2 E2 | F4 |] %18
w: run- ning thro'|grace to|that hap- py|place. Thro'|grace I'm- * de-|ter- min'd- * to|see my Lord's|face.|
V:3
 A,A, | A,2 C2 C2 | C4 CC | C2 C2 C2 | C4 CC | C2 C2 CC | D2 D2 DD | C2 D2 B,2 | A,4 :| A,2 | %10
 A,2 C2 C2 | C4 C2 | C2 C2 C2 | C4 A,2 | C2 C2 C2 | D2 D2 D2 | C2 C2 B,2 | A,4 |] %18
V:4
 F,F, | F,2 F,2 F,2 | C,4 C,C, | C,2 C,2 C,2 | F,4 F,F, | F,2 F,2 F,F, | B,,2 B,,2 B,,B,, | %7
 C,2 C,2 C,2 | F,4 :| F,2 | F,2 F,2 F,2 | C,4 C,2 | C,2 C,2 C,2 | F,4 F,2 | F,2 F,2 F,2 | %15
 B,,2 B,,2 B,,2 | C,2 C,2 C,2 | F,4 |] %18

